X: 46
T:Finbar Dwyer's
T:Fox on the Town, The
T:Richard Dwyer's
M:C|
C:Finbar Dwyer
R:reel
H:See also #619 (different version)
Z:Chris Corrigan
K:G
gdBd edBA|G2Bd edBd|gdBd edef|gefd efga|
bggd edBA|G2Bd edBd|efgb agef|1 gbaf g2gf:|2 gbaf g2ga||
be~e2 edBd|e2Be dega|be~e2 edBd|efgb a2ef|
~g3d edBA|G2Bd edBd|efgb agef|1 gbaf g2ga:|2 gbaf g2gf||
<end>
<start>
